X:1
T:Blessed is he - Purcell
T:#
%%score [ 1 2 3 ] 4
L:1/8
Q:1/4=60
M:2/2
K:C
V:1 treble nm="Alto" snm="A"
V:2 treble-8 nm="Tenor" snm="T"
V:3 bass nm="Bass" snm="B"
V:4 bass nm="Midi_43"
V:1
"^Blessed is he""^Henry Purcell\n(1659-95)""^Psalm 41:1-3" E2 EE F2 z2 | F2 FF D2 DD | %2
w: Bles- sed is he,|bles- sed is he that con-|
 G>GGG (G2 F2- | F2) z F (F2 E2- |[M:2/2] EF) (ED) E2 E2 | B,2 B,B, C2 z2 | C2 CD B,2 B,C | %7
w: si- de- reth the poor, *|* the poor *|* * and * nee- dy;|bles- sed is he,|bles- sed is he that con-|
 DDDD (^D3 E | ^F2 G^D E3) F | ^D2 D2 z2 z E | (^D^C)DB, (ED) (EC) | (^DE)^FD G4 | %12
w: si- de- reth the poor *|* * * * and|nee- dy; the|Lord * shall de- li\- * ver *|him * in the time,|
 (G2 ^F3 G) (FE) | E3 ^D E4- | E2 E2 z2 z G | (E=D)EC (FE) (FD) | E6 D2- | %17
w: in * * the *|time of trou\-|* ble: the|Lord * shall de- li\- * ver *|him in|
 D (E/F/) (E/D/C- C3) (B,/A,/) | A,2 A,E E2 EE | E2 D2 (D/E/F)E (D/C/) | C3 (B,/A,/) A,2 A,2 || %21
w: * the * time * * * of *|trou- ble, the Lord shall de-|li- ver him * * in the *|time of * trou- ble.|
[M:3/4][Q:1/4=72]"^Verse"[Q:1/4=72][Q:1/4=72][Q:1/4=72] z A, E3 F | D2 B,3 E | C2 A,3 E | F3 D G2 | %25
w: The Lord pre-|serve him, pre-|serve him, and|keep him a-|
 (G/F/E- E/F/E/F/ E/D/C/E/ | D/C/B,- B,/C/B,/C/ B,/C/) (D/E/) | C3 B, A,2 | E6- | E2 z ^G A>E | %30
w: live, * * * * * * * * * *|* * * * * * * * * and *|keep him a-|live,|* the Lord pre-|
 F2 F3 F | (FB,) (B,>D E>B,) | C2 C3 D | (D^G,) G,3 B, | C3 A, D2 | %35
w: serve him, the|Lord * pre\- * * *|serve him, pre-|serve * him, and|keep him a-|
 (D/C/B,- B,/C/B,/C/ B,/A,/G,/A,/ | B,/C/B,/C/ D/E/D/E/ F/E/F/D/ | G6 | G>G G2 E2 | (F>G) F2 z2 | %40
w: live; * * * * * * * * * *|||that he may be|bles\- * sed,|
 F>F F2 D2 | E>F E/D/C/B,/ A,/B,/C/D/ | B,/C/D/E/ C/D/E/F/ D/E/F/G/ | E/F/G/A/ G2) FE | (E2 D3 C) | %45
w: that he may be|bles\- * * * * * * * * *||* * * * * sed u-|pon * *|
 C6 | z2 z2 D>C | B,>A, G,2 E2 | A,4 F>E | D>C B,2 G2 | ^C3 C D>E | F3 E ^C2 | D>D D2 z2 | %53
w: earth;|and de-|li- ver not thou|him, and de-|li- ver not thou|him in- to the|will of his|e- ne- mies;|
 z2 z2 G>F | E>D C2 F2 | B,4 E>D | C>B, A,2 D2 | ^G,3 G, A,>B, | C3 C D>E | (FE) (D/C/B,) (C/D/E) | %60
w: and de-|li- ver not thou|him, and de-|li- ver not thou|~~him in- to the|will, in- to the|will * of * * his * *|
 C3 B, A,2 ||[M:4/4] z8 | z8 | z2 z E F4 | (F2 E>)E E2 z E | G4 (G2 ^F>)F | ^F2 z2 =F2 E2 | %67
w: e- ne- mies.|||The Lord|com\- * fort him, the|Lord com\- * fort|him when he|
 E2 D2 (D2 ^C2- | C2) =C2 B,3 A, | A,8 ||[M:3/4][Q:1/4=90] E>D C2 B,2 | %71
w: ly- eth sick *|* u- pon his|bed;|make thou all his|
[M:3/4][Q:1/4=90][Q:1/4=90][Q:1/4=90][Q:1/4=90] C6 | F>E D2 C2 | D4 (E>F) | (E>F D>E F>G) | E2 C4 | %76
w: bed,|make thou all his|bed in *|his * * * * *|sick- ness,|
 G>F E2 D2 | E6 | E>D C2 B,2 | C4 E2 | F2 z2 D2 | E2 z2 C2 | D4 E2 | (DC) (B,C) (DE) | C2 A,4 || %85
w: make thou all his|bed,|make thou all his|bed, all,|all, all,|all, all,|all his|bed * in * his *|sick- ness.|
[M:2/2][Q:1/4=80] z8 | z8 | z8 |[M:2/2][Q:1/4=80][Q:1/4=80][Q:1/4=80][Q:1/4=80] z8 | z8 | z8 | z8 | %92
w: |||||||
 z8 | z8 | z8 | (E/D/E/F/E)C G2 F>E | D B,2 (B,/C/ D/C/D/E/D)E | F2 ED ^C3 (E/F/ | %98
w: |||Glo\- * * * * ry be to the|Fa- ther, glo\- * * * * * * ry|be to the Son, glo\- *|
 G/F/G/A/G) (F/E/) F2 ED | D3 ^C D4 | z8 | z8 | (E/^D/E/F/E)B, G2 ^FE | E3 ^D E4 | %104
w: * * * * * ry * be to the|Ho- ly Ghost;|||Glo\- * * * * ry be to the|Ho- ly Ghost;|
 (G/F/G/A/G)E G2 FE | DD z2 F2 z E | E2 D2 E2 z B,/A,/ | ^G,B,E,E CA, z2 | z8 | z8 | z8 | %111
w: Glo\- * * * * ry be to the|Fa- ther, Son, and|Ho- ly Ghost: as it|was in the be- gin- ning,||||
 (G/F/G/A/G)E (G2 F)E | DD z2 F2 z E | E2 D2 E4 |[Q:1/4=80] z (E/F/ GF/E/ FD/E/ FE/D/ | %115
w: Glo\- * * * * ry to * the|Fa- ther, Son, and|Ho- ly Ghost:|A\- * * * * * * * * * *|
 EC/D/ ED/C/ DB,/C/ DC/B,/) | CAEA DGDG | CFCF B,EB,E | A,DA,D G, (CB,A,) | ^G,2 z2 z (E/F/ GF/E/ | %120
w: |men, world with- out end, world with- out|end, world with- out end, world with- out|end, world with- out end. A\- * *|men. A\- * * * *|
 FD/E/ FE/D/ EC/D/ ED/C/ | DB,/C/ DC/B,/ CC/D/ ED/C/ | B,C B,2) A, (C/D/ ED/C/ | %123
w: ||* * * men. A\- * * * *|
 B,C/D/ ED/C/ B,C B,2) | A,2 z B, A,2 z2 |] %125
w: |men. A- men.|
V:2
 c2 cc d2 z2 | d2 dd B2 z B | e2 eB c>ccc | (c2 B4) z B |[M:2/2][K:treble-8] (A2 B>)c ^G2 G2 | %5
w: Bles- sed is he,|bles- sed is he, is|he that con- si- de- reth the|poor, * the|poor * and nee- dy;|
 ^G2 GG A2 z2 | ^F2 FF G2 GA | BBBB (AB c2- | cB/c/ B3 c) A2 | B2 B>B (G^F)GE | (BA) (BG) (cB)cA | %11
w: bles- sed is he,|bles- sed is he that con-|si- de- reth the poor * *|* * * * * and|nee- dy; the Lord * shall de-|li\- * ver * him * in the|
 (B^c) (^dB) e e2 B | (cB) (cA) B2 Bc | (BA/G/) (^FG/A/) G2 E2 | z2 z c (BA)BG | (cB) (cA) (dc)dB | %16
w: time * of * trou- ble, de-|li\- * ver * him in the|time * * of * * trou- ble:|the Lord * shall de-|li\- * ver * him, * shall de-|
 (cBc^G) (AGA^F) | ^G2 AA A3 G | A2 Ac (cB)c^G | (A^G) (A^F) G2 AA | A3 ^G A2 A2 ||[M:3/4] z6 | %22
w: li\- * * * ver * * *|him in the time of|trou- ble, the Lord * shall de-|li\- * ver * him in the|time of trou- ble.||
 z6 | z6 | z6 | z6 |[M:3/4] z6 | z6 | z6 | z6 | z6 | z6 |[M:3/4] z6 | z6 | z6 | z6 | z6 | %37
w: |||||||||||||||
[M:3/4] z6 | z6 | z6 | z6 | z6 |[M:3/4] z6 | z6 | z6 | z6 | z6 | z6 | z6 |[M:3/4] z6 | z6 | z6 | %52
w: |||||||||||||||
 z6 | z6 | z6 |[M:3/4] z6 | z6 | z6 | z6 | z6 | z6 ||[M:4/4][K:treble-8] z2 z B c4 | %62
w: |||||||||The Lord|
 (c2 B>)B B2 z B | e4 (e2 d>)d | (d2 c>)c c2 z c | e4 (e2 d>)d | d2 z2 d2 c2 | c2 B2 (B4 | %68
w: com\- * fort him, the|Lord com\- * fort,|com\- * fort him, the|Lord com\- * fort|him when he|ly- eth sick|
 _B2) A2 (A2 ^G>)A | A8 ||[M:3/4] c>B A2 ^G2 |[M:3/4][K:treble-8] A6 | d>c B2 A2 | B4 (c>d) | %74
w: * u- pon * his|bed;|make thou all his|bed,|make thou all his|bed in *|
 (c>d B>c d>B) | c2 c4 | e>d c2 B2 | c6 | c>B A2 ^G2 | A4 ^c2 | d2 z2 B2 | c2 z2 A2 | B4 A2 | %83
w: his * * * * *|sick- ness,|make thou all his|bed,|make thou all his|bed, all,|all, all,|all, all,|all his|
 A2 (^GA) (BA) | A2 A4 ||[M:2/2] z8 | z8 | z8 |[M:2/2][K:treble-8] z8 | z8 | %90
w: bed in * his *|sick- ness.||||||
 (c/B/c/d/c)G (c/d/e)d>c | B G2 (B/c/ d/c/d/e/d) (c/B/) | c2 BA ^G3 (c/d/ | %93
w: Glo\- * * * * ry be * * to the|Fa- ther, glo\- * * * * * * ry *|be to the Son, glo\- *|
 e/d/e/f/e) (d/c/) B2 cc | c3 B c4 | z8 | z8 | z8 | z8 | z8 | z8 | (A/^G/A/B/A)E c2 BA | B2 z2 z4 | %103
w: * * * * * ry * be to the|Ho- ly Ghost;|||||||Glo\- * * * * ry be to the|Son,|
 z8 | (e/d/e/f/e)c e2 dc | BB z2 d2 z c | A3 B ^G4 | z8 | z4 z B (c/B/c/G/ | %109
w: |Glo\- * * * * ry be to the|Fa- ther, Son, and|Ho- ly Ghost:||and e\- * * *|
 AB/c/ d/c/d/A/ Bc/d/ e/d/e/B/ | cd B2 c4 | (e/d/e/f/e)c e2 d)c | BB z2 d2 z c | A3 B ^G4 | %114
w: |* ver shall be;|Glo- * * * * ry to * the|Fa- ther, Son and|Ho- ly Ghost:|
 z (c/d/ ed/c/ dB/c/ dc/B/ | cA/B/ cB/A/ B^G/A/ BA/G/) | A4 z eBe | AdAd GcGc | %118
w: A\- * * * * * * * * * *||men, world with- out|end, world with- out end, world with- out|
 ^FBFB E (A/G/ F>E) | E2 z2 z (c/d/ ed/c/ | dB/c/ dc/B/ cA/B/ cB/A/ | B^G/A/ BA/G/ Ac/B/ AB/c/ | %122
w: end, world with- out end. A\- * * *|men. A\- * * * *|||
 BA ^G2) A (A/B/ cB/A/ | ^Gc/B/ AB/c/ BA G2) | A2 z ^G A2 z2 |] %125
w: * * * men. A\- * * * *||men. A- men.|
V:3
 A,2 A,A, D,2 z2 | D,2 D,D, G,2 z G, | E,2 E,E, A,>A,A,A, | (A,2 ^G,4) z =G, | %4
w: Bles- sed is he,|bles- sed is he, is|he that con- si- de- reth the|poor, * the|
[M:2/2] ^F,2 =F,2 E,2 E,2 | E,2 E,E, A,,2 z2 | D,2 D,D, G,,2 G,G, | G,G,G,G, (^F,3 E, | %8
w: poor and nee- dy;|bles- sed is he,|bles- sed is he that con-|si- de- reth the poor *|
 ^D,2 E,B,, C,3) A,, | B,,2 B,,2 z4 | z8 | z2 z B, (G,^F,)G,E, | (A,G,) (A,^F,) G,2 G,A, | %13
w: * * * * and|nee- dy;||the Lord * shall de-|li\- * ver * him in the|
 B,2 B,,2 E,2 E,G, | (E,D,)E,C, (G,^F,) (G,E,) | A,4- A,3 A, | (A,^G,)A,E, (F,E,) (F,D,) | %17
w: time of trou- ble; the|Lord * shall de- li\- * ver *|him, * the|Lord * shall de- li\- * ver *|
 (E,B,,)C,A,, E,3 E, | A,,2 A,,A, (A,^G,)A,E, | (F,E,) (F,D,) (E,B,,)C,A,, | E,3 E, A,,2 A,,2 || %21
w: him * in the time of|trou- ble, the Lord * shall de-|li\- * ver * him * in the|time of trou- ble.|
[M:3/4] z6 | z6 | z6 | z6 | z6 |[M:3/4] z6 | z6 | z6 | z6 | z6 | z6 |[M:3/4] z6 | z6 | z6 | z6 | %36
w: |||||||||||||||
 z6 |[M:3/4] z6 | z6 | z6 | z6 | z6 |[M:3/4] z6 | z6 | z6 | z6 | z6 | z6 | z6 |[M:3/4] z6 | z6 | %51
w: |||||||||||||||
 z6 | z6 | z6 | z6 |[M:3/4] z6 | z6 | z6 | z6 | z6 | z6 ||[M:4/4] z2 z ^G, A,4 | %62
w: ||||||||||The Lord|
 (A,2 ^G,>)G, G,2 z =G, | C4 (C2 B,>)B, | C3 C C2 z C | ^C4 D3 D | D2 z2 D,2 E,2 | %67
w: com\- * fort him, the|Lord com\- * fort,|com- fort him, the|Lord com- fort|him when he|
 ^F,2 G,2 (^G,2 A,2 | D,3) D, E,3 E, | A,,8 ||[M:3/4] z6 |[M:3/4] A,>G, F,2 E,2 | F,6 | %73
w: ly- eth sick *|* u- pon his|bed;||make thou all his|bed,|
 F,>E, D,2 C,2 | G,2 G,2 G,,2 | C,2 C,4 | z6 | C>B, A,2 ^G,2 | A,6 | A,>=G, F,2 E,2 | D,2 D,2 G,2 | %81
w: make thou all his|bed in his|sick- ness;||make thou all his|bed,|make thou all his|bed, all, all,|
 z2 C,2 F,2 | F,>E, D,2 C,2 | (B,,A,,) E,3 E, | A,,2 A,,4 ||[M:2/2] (A,/^G,/A,/B,/A,)E, A,2 =G,F, | %86
w: all, all,|make thou all his|bed * in his|sick- ness.|Glo\- * * * * ry be to the|
 E, C,2 (E,/F,/ G,/F,/G,/A,/G,)C, | (E,/F,/G,)F,>E, D,3 (G,/A,/ | %88
w: Fa- ther, glo\- * * * * * * ry|be * * to the Son, glo\- *|
[M:2/2] B,/A,/B,/C/B,) (A,/G,/) ^F,2 G,A, | ^F,3 E, E,4 | z8 | z8 | z8 | z8 | z8 | z8 | z8 | z8 | %98
w: * * * * * ry * be to the|Ho- ly Ghost;|||||||||
 z8 | z8 | (D,/^C,/D,/E,/D,)A,, F,2 E,D, | E,A,, z2 z4 | z8 | z8 | CG,CG, C2 C,2 | %105
w: ||Glo\- * * * * ry be to the|Fa- ther,|||Glo- ry, glo- ry to the|
 G,G, z2 D,2 z E, | F,3 E, E,4 | z4 z2 z A, | F,D,D,D B,G, G,2 | z8 | z8 | CG,CG, C2 C,2 | %112
w: Fa- ther, Son, and|Ho- ly Ghost:|is|now, now, now, now, now, now, now;|||Glo- ry, glo- ry to the|
 G,G, z2 D,2 z E, | F,3 E, E,E,B,,E, | A,,A,E,A, D,G,D,G, | C,F,C,F, B,,E,B,,E, | %116
w: Fa- ther, Son, and|Ho- ly Ghost; world with- out|* world with- out end, world with- out|end, world with- out end, world with- out|
 A,,2 z2 z (E,/F,/ G,F,/E,/ | F,D,/E,/ F,E,/D,/ E,C,/D,/ E,D,/C,/ | %118
w: end. A\- * * * *||
 D,B,,/C,/ D,C,/B,,/ C,A,, B,,2) | E,EB,E A,A,E,A, | D,G,D,G, C,F,C,F, | %121
w: |men. world with- out end, world with- out|end, world with- out end, world with- out|
 B,,E,B,,E, A,, (A,/B,/ CB,/A,/ | ^G,A, E,2) A,,2 z2 | z (A,/B,/ CB,/A,/ ^G,A, E,2) | %124
w: end, world with- out end, A\- * * * *|* * * men.|A\- * * * * * * *|
 A,,2 z E, A,,2 z2 |] %125
w: men. A- men.|
V:4
 A,2 A,A, D,2 z2 | D,2 D,D, G,2 z G, | E,4 A,4 | (A,2 ^G,4) =G,2 |[M:2/2] ^F,2 =F,2 E,4 | %5
w: ||* 7~~~~~~~~~6|* 7 6|7 5 *|
w: |||||
 E,2 E,E, A,,2 z2 | D,2 D,D, G,,4 | G,4 ^F,3 E, | ^D,2 E,B,, C,4 | B,,4 E,4 | B,A,B,G, CB,CA, | %11
w: ||* 6+ *|* * * 7~~~~~~~6|||
w: ||||||
 B,2 B,B, G,^F,G,E, | A,G, A,^F, G,3 A, | B,2 B,,2 E,4 | C,4 G,3 E, | A,8 | A,^G,A,E, F,E, F,D, | %17
w: * * * 6 * * *|7 * 6+ * 7~~~~~~~~6 *|6 5 *||4|5 * * * 7 * 6 *|
w: ||4 * *|||3 * * * * * * *|
 E,B,,C,A,, E,2 E,,2 | A,,3 A, A,^G,A,E, | F,E, F,D, E,B,, C,A,, | E,2 E,,2 A,,4 ||[M:3/4] A,6 | %22
w: 7 * * * 6 5||* * 6 * * * 6 *|6 ~5 *||
w: |||4 * *||
 A,2 ^G,4 | A,3 G, F,E, | D,2 G,2 G,,2 | C,6 | G,4 ^G,2 | A,2 G,2 F,2 | E,3 B, E>B, | C2 ^C2 C2 | %30
w: 4 *||* 7 *|||* 6 6||6 * *|
w: 2 *||||||||
 D4 D,2 | G,2 ^G,4 | A,2 D,4 | E,3 D, C,>B,, | A,,2 D,2 D,,2 | G,,6 | G,,2 G,2 F,2 | %37
w: |7 6|* 7||||* * 4|
w: ||||||* * 6|
 E,/F,/E,/D,/ C,/D,/E,/F,/ G,/A,/B,/G,/ | C/D/C/B,/ A,/G,/A,/B,/ ^C/B,/C/A,/ | D>D D2 C2 | %40
w: |* * * * 7 * * * 5 * * *|3 * * *|
w: |||
 B,2 G,4 | C2 C,2 F,2 | G,2 A,2 B,2 | C2 C,2 D,2 | G,2 G,,4 | C,4 C>B, | A,>G, F,>E, D,2 | %47
w: 5 7||* 6 6||6 5|||
w: ||* * 5||4 3|||
 G,>F, E,>D, C,2 | F,>G, F,>E, D,2 | G,>A, G,>F, E,2 | A,>_B, A,>G, F,>E, | D,2 A,,4 | D,4 D>C | %53
w: |||* * * * 6 *|* 6~~~~~~~5||
w: ||||* 4||
 B,>A, G,>F, E,2 | A,>B, A,>G, F,2 | G,>F, E,>D, C,2 | F,>G, F,>E, D,2 | E,>F, E,>D, C,>B,, | %58
w: 6 * * * *|* * * * 6||* * * * 6|* * * * 6 *|
w: |||||
 A,,>B,, A,,>G,, F,,>E,, | D,,2 E,,4 | A,,6 ||[M:4/4] E,8- | E,8 | C,4 A,,2 B,,2 | C,8 | ^C,4 D,4 | %66
w: * * * * 6 *|* 4||5~~~~~~~~~~~~~~~~6|6~~~~~~5~~~~~~~~~~~~~~~5~~~~~5|* 6 5|6|5 9~~~~~~8|
w: |||~~~~~~~~~~~~~~~~~~4|4|* 5 3|4~~~~3|* 4|
 D,4 D,2 E,2 | ^F,2 G,2 ^G,2 A,2 | D,4 E,4 | A,,8 ||[M:3/4] A,,4 E,2 |[M:3/4] A,>G, F,2 E,2 | F,6 | %73
w: * * 6|7 * * *|||||6|
w: |||||||
 F,>E, D,2 C,2 | G,2 G,,4 | C,6 | C,6- | C,4 B,,2 | A,,6 | A,,6 | D,4 G,2 | C,4 F,2 | %82
w: 6 * 6 *|6 5|||5~~~~~6 6|||||
w: 4 * * *|4 3||||||||
 F,>E, D,2 C,2 | B,,A,, E,2 E,,2 | A,,6 ||[M:2/2] A,,6 B,,2 | C,8 | E,,2 F,,2 G,,4 | %88
w: 6 * 6 6|||* 6~~~5||6 * *|
w: 4 * * *||||||
[M:2/2] G,,3 A,, B,,2 E,,2 | B,,4 E,,2 E,D, | C,6 F,,2 | G,,6 ^G,,2 | A,,2 D,,2 E,,2 E,D, | %93
w: 6 * * *||* 6~~~~5|||
w: |||||
 C,2 F,,2 G,,2 A,,2 | G,,4 C,4 | C,4 E,2 F,2 | G,6 F,E, | D,2 G,,2 A,,4- | A,,2 ^C,2 D,2 G,,2 | %99
w: * * * 6|6~~~~~5 *|* 6 *||* 6~~~5 *||
w: |4~~~~~3 *|||||
 A,,4 D,4 | D,,8 | A,,8 | E,8 | B,,4 E,,2 E,D, | C,8 | G,4 D,2 E,2 | F,4 E,4 | E,4 A,,4 | %108
w: 4 *||||4 * * *||* * 6|7~~~~~~~6 *||
w: |||||||||
 D,4 G,2 E,2 | F,2 D,2 G,2 E,2 | A,F,G,G,, C,/C/B,/A,/ G,/F,/E,/D,/ | C,8 | G,4 D,2 E,2 | %113
w: * * 6||||* * 6|
w: |||||
 F,4 E,E, B,,E, | A,,A,E,A, D,G,D,G, | C,F,C,F, B,,E,B,,E, | A,,2 A,F, G,E,G,E, | %117
w: 7~~~~5 * * 4+ *||||
w: ||||
 F,D,F,D, E,C,E,C, | D,B,,D,B,, C,A,, B,,2 | E,4 A,,A,E,A, | D,G,D,G, C,F,C,F, | B,,E,B,,E, A,,4 | %122
w: |||||
w: |||||
 E,2 E,,2 A,,4 | E,4 E,2 E,,2 | A,,2 E,,2 A,,4 |] %125
w: |5 * *||
w: |||

